ix/cup_bulk.svg

<svg viewBox="0 0 24 24" fill="none" xmlns="http://www.w3.org/2000/svg" height="1em" width="1em">
  <path opacity="0.4" d="M18 20.5H17V20.25C17 19.15 16.1 18.25 15 18.25H12.75V15.96C12.5 15.99 12.25 16 12 16C11.75 16 11.5 15.99 11.25 15.96V18.25H9C7.9 18.25 7 19.15 7 20.25V20.5H6C5.59 20.5 5.25 20.84 5.25 21.25C5.25 21.66 5.59 22 6 22H18C18.41 22 18.75 21.66 18.75 21.25C18.75 20.84 18.41 20.5 18 20.5Z" fill="#292D32"/>
  <path opacity="0.4" d="M5.5193 11.64C4.8593 11.39 4.2793 10.98 3.8193 10.52C2.8893 9.49 2.2793 8.26 2.2793 6.82C2.2793 5.38 3.4093 4.25 4.8493 4.25H5.4093C5.1493 4.78 4.9993 5.37 4.9993 6V9C4.9993 9.94 5.1793 10.83 5.5193 11.64Z" fill="#292D32"/>
  <path opacity="0.4" d="M21.7205 6.82C21.7205 8.26 21.1105 9.49 20.1805 10.52C19.7205 10.98 19.1405 11.39 18.4805 11.64C18.8205 10.83 19.0005 9.94 19.0005 9V6C19.0005 5.37 18.8505 4.78 18.5905 4.25H19.1505C20.5905 4.25 21.7205 5.38 21.7205 6.82Z" fill="#292D32"/>
  <path d="M15 2H9C6.79 2 5 3.79 5 6V9C5 12.87 8.13 16 12 16C15.87 16 19 12.87 19 9V6C19 3.79 17.21 2 15 2ZM14.84 8.45L14.22 9.21C14.12 9.32 14.05 9.54 14.06 9.69L14.12 10.67C14.16 11.27 13.73 11.58 13.17 11.36L12.26 11C12.12 10.95 11.88 10.95 11.74 11L10.83 11.36C10.27 11.58 9.84 11.27 9.88 10.67L9.94 9.69C9.95 9.54 9.88 9.32 9.78 9.21L9.16 8.45C8.77 7.99 8.94 7.48 9.52 7.33L10.47 7.09C10.62 7.05 10.8 6.91 10.88 6.78L11.41 5.96C11.74 5.45 12.26 5.45 12.59 5.96L13.12 6.78C13.2 6.91 13.38 7.05 13.53 7.09L14.48 7.33C15.06 7.48 15.23 7.99 14.84 8.45Z" fill="#292D32"/>
  <path opacity="0.4" d="M14.8397 8.44989L14.2197 9.20989C14.1197 9.31989 14.0497 9.53989 14.0597 9.68989L14.1197 10.6699C14.1597 11.2699 13.7297 11.5799 13.1697 11.3599L12.2597 10.9999C12.1197 10.9499 11.8797 10.9499 11.7397 10.9999L10.8297 11.3599C10.2697 11.5799 9.83975 11.2699 9.87975 10.6699L9.93975 9.68989C9.94975 9.53989 9.87975 9.31989 9.77975 9.20989L9.15975 8.44989C8.76975 7.98989 8.93975 7.47989 9.51975 7.32989L10.4697 7.08989C10.6197 7.04989 10.7997 6.90989 10.8797 6.77989L11.4097 5.95989C11.7397 5.44989 12.2597 5.44989 12.5897 5.95989L13.1197 6.77989C13.1997 6.90989 13.3797 7.04989 13.5297 7.08989L14.4797 7.32989C15.0597 7.47989 15.2297 7.98989 14.8397 8.44989Z" fill="#292D32"/>
</svg>

<svg viewBox="0 0 24 24" fill="none" xmlns="http://www.w3.org/2000/svg" height="1em" width="1em">
  <path opacity=".4" d="M18 20.5h-1v-.25c0-1.1-.9-2-2-2h-2.25v-2.29c-.25.03-.5.04-.75.04s-.5-.01-.75-.04v2.29H9c-1.1 0-2 .9-2 2v.25H6c-.41 0-.75.34-.75.75s.34.75.75.75h12c.41 0 .75-.34.75-.75s-.34-.75-.75-.75ZM5.52 11.64c-.66-.25-1.24-.66-1.7-1.12-.93-1.03-1.54-2.26-1.54-3.7 0-1.44 1.13-2.57 2.57-2.57h.56C5.15 4.78 5 5.37 5 6v3c0 .94.18 1.83.52 2.64Zm16.2-4.82c0 1.44-.61 2.67-1.54 3.7-.46.46-1.04.87-1.7 1.12.34-.81.52-1.7.52-2.64V6c0-.63-.15-1.22-.41-1.75h.56c1.44 0 2.57 1.13 2.57 2.57Z" fill="#292D32"/>
  <path d="M15 2H9C6.79 2 5 3.79 5 6v3c0 3.87 3.13 7 7 7s7-3.13 7-7V6c0-2.21-1.79-4-4-4Zm-.16 6.45-.62.76c-.1.11-.17.33-.16.48l.06.98c.04.6-.39.91-.95.69l-.91-.36a.92.92 0 0 0-.52 0l-.91.36c-.56.22-.99-.09-.95-.69l.06-.98a.751.751 0 0 0-.16-.48l-.62-.76c-.39-.46-.22-.97.36-1.12l.95-.24c.15-.04.33-.18.41-.31l.53-.82c.33-.51.85-.51 1.18 0l.53.82c.08.13.26.27.41.31l.95.24c.58.15.75.66.36 1.12Z" fill="#292D32"/>
  <path opacity=".4" d="m14.84 8.45-.62.76c-.1.11-.17.33-.16.48l.06.98c.04.6-.39.91-.95.69l-.91-.36a.92.92 0 0 0-.52 0l-.91.36c-.56.22-.99-.09-.95-.69l.06-.98a.751.751 0 0 0-.16-.48l-.62-.76c-.39-.46-.22-.97.36-1.12l.95-.24c.15-.04.33-.18.41-.31l.53-.82c.33-.51.85-.51 1.18 0l.53.82c.08.13.26.27.41.31l.95.24c.58.15.75.66.36 1.12Z" fill="#292D32"/>
</svg>
